svgs/sharp-solid/ruler-vertical.svg

<svg xmlns="http://www.w3.org/2000/svg" viewBox="0 0 256 512"><!--! Font Awesome Pro 6.6.0 by @fontawesome - https://fontawesome.com License - https://fontawesome.com/license (Commercial License) Copyright 2024 Fonticons, Inc. --><path d="M0 0L256 0l0 96-80 0-16 0 0 32 16 0 80 0 0 64-80 0-16 0 0 32 16 0 80 0 0 64-80 0-16 0 0 32 16 0 80 0 0 64-80 0-16 0 0 32 16 0 80 0 0 96L0 512 0 0z"/></svg>

<svg xmlns="http://www.w3.org/2000/svg" viewBox="0 0 256 512"><!--! Font Awesome Pro 6.4.0 by @fontawesome - https://fontawesome.com License - https://fontawesome.com/license (Commercial License) Copyright 2023 Fonticons, Inc. --><path d="M0 0H256V96H176 160v32h16 80v64H176 160v32h16 80v64H176 160v32h16 80v64H176 160v32h16 80v96H0V0z"/></svg>
